dist/assets/img/iconsfont/user.svg

<svg width="22" height="29" viewBox="0 0 22 29" fill="none" xmlns="http://www.w3.org/2000/svg">
<path d="M10.5941 15.3117C10.6201 15.3117 10.6461 15.3117 10.6773 15.3117C10.6877 15.3117 10.6981 15.3117 10.7085 15.3117C10.7242 15.3117 10.745 15.3117 10.7606 15.3117C12.2849 15.2831 13.5179 14.6931 14.4283 13.5646C16.4313 11.0784 16.0983 6.81654 16.0619 6.40983C15.9319 3.35661 14.6208 1.89587 13.5387 1.21419C12.7323 0.704369 11.7907 0.429408 10.7398 0.406494H10.7033C10.6981 0.406494 10.6877 0.406494 10.6825 0.406494H10.6513C10.0738 0.406494 8.9397 0.509605 7.85237 1.19128C6.75985 1.87296 5.42801 3.33369 5.29795 6.40983C5.26153 6.81654 4.92857 11.0784 6.93153 13.5646C7.83677 14.6931 9.06976 15.2831 10.5941 15.3117ZM6.68701 6.55304C6.68701 6.53585 6.69222 6.51867 6.69222 6.50721C6.8639 2.39997 9.51197 1.95888 10.6461 1.95888H10.6669C10.6773 1.95888 10.6929 1.95888 10.7085 1.95888C12.1132 1.99325 14.5012 2.62337 14.6624 6.50721C14.6624 6.52439 14.6624 6.54158 14.6676 6.55304C14.6728 6.59313 15.037 10.4884 13.3826 12.5392C12.7271 13.3526 11.8531 13.7536 10.7033 13.7651C10.6929 13.7651 10.6877 13.7651 10.6773 13.7651C10.6669 13.7651 10.6617 13.7651 10.6513 13.7651C9.50677 13.7536 8.62755 13.3526 7.97723 12.5392C6.32804 10.4999 6.68181 6.58741 6.68701 6.55304Z" fill="white"/>
<path d="M21.3682 22.3805C21.3682 22.3748 21.3682 22.3691 21.3682 22.3633C21.3682 22.3175 21.363 22.2717 21.363 22.2201C21.3318 21.0859 21.2641 18.4337 19.0062 17.5859C18.9906 17.5801 18.9698 17.5744 18.9542 17.5687C16.6079 16.9099 14.6569 15.4206 14.6361 15.4034C14.3188 15.157 13.8817 15.243 13.658 15.5924C13.4343 15.9418 13.5124 16.423 13.8297 16.6693C13.9182 16.7381 15.9888 18.3248 18.5796 19.0581C19.7918 19.5335 19.9271 20.9599 19.9635 22.266C19.9635 22.3175 19.9635 22.3633 19.9687 22.4092C19.9739 22.9247 19.9427 23.721 19.8594 24.1792C19.0166 24.7062 15.713 26.5279 10.6874 26.5279C5.68257 26.5279 2.35816 24.7005 1.51015 24.1735C1.42691 23.7152 1.39049 22.919 1.40089 22.4034C1.40089 22.3576 1.4061 22.3118 1.4061 22.2602C1.44251 20.9542 1.57778 19.5278 2.78997 19.0523C5.38082 18.3191 7.45143 16.7266 7.53987 16.6636C7.85722 16.4173 7.93526 15.9361 7.71155 15.5867C7.48784 15.2372 7.05083 15.1513 6.73348 15.3976C6.71267 15.4148 4.77213 16.9042 2.41539 17.563C2.39458 17.5687 2.37897 17.5744 2.36336 17.5801C0.105466 18.4337 0.0378337 21.0859 0.00661858 22.2144C0.00661858 22.266 0.00661846 22.3118 0.00141594 22.3576C0.00141594 22.3633 0.00141594 22.3691 0.00141594 22.3748C-0.00378658 22.6727 -0.00898899 24.2021 0.266745 24.9697C0.31877 25.1187 0.412415 25.2447 0.537276 25.3306C0.693352 25.4452 4.43396 28.0688 10.6926 28.0688C16.9512 28.0688 20.6918 25.4395 20.8479 25.3306C20.9676 25.2447 21.0664 25.1187 21.1185 24.9697C21.3786 24.2079 21.3734 22.6784 21.3682 22.3805Z" fill="white"/>
</svg>

<svg width="22" height="29" fill="none" xmlns="http://www.w3.org/2000/svg"><path d="M10.594 15.312h.167c1.524-.029 2.757-.619 3.667-1.747 2.003-2.487 1.67-6.748 1.634-7.155-.13-3.053-1.441-4.514-2.523-5.196-.807-.51-1.748-.785-2.8-.808h-.088c-.577 0-1.711.104-2.799.785-1.092.682-2.424 2.143-2.554 5.219-.036.407-.37 4.668 1.634 7.155.905 1.128 2.138 1.718 3.662 1.747zM6.687 6.553c0-.017.005-.034.005-.046.172-4.107 2.82-4.548 3.954-4.548h.063c1.404.034 3.792.664 3.953 4.548 0 .017 0 .035.006.046.005.04.369 3.935-1.285 5.986-.656.814-1.53 1.215-2.68 1.226h-.052c-1.144-.011-2.023-.412-2.674-1.226-1.649-2.04-1.295-5.952-1.29-5.986z" fill="#fff"/><path d="M21.368 22.38v-.017c0-.046-.005-.091-.005-.143-.031-1.134-.099-3.786-2.357-4.634-.015-.006-.036-.012-.052-.017-2.346-.66-4.297-2.148-4.318-2.166-.317-.246-.754-.16-.978.19-.224.349-.146.83.172 1.076.088.07 2.159 1.656 4.75 2.39 1.212.474 1.347 1.9 1.384 3.207 0 .052 0 .097.005.143.005.516-.026 1.312-.11 1.77-.842.527-4.146 2.349-9.172 2.349-5.004 0-8.329-1.827-9.177-2.354-.083-.459-.12-1.255-.11-1.77 0-.046.006-.092.006-.144.037-1.306.172-2.732 1.384-3.208 2.59-.733 4.661-2.325 4.75-2.388a.825.825 0 00.172-1.077c-.224-.35-.661-.436-.979-.19-.02.018-1.96 1.507-4.318 2.166a.613.613 0 00-.052.017C.105 18.434.038 21.086.007 22.214c0 .052 0 .098-.006.144v.017c-.005.298-.01 1.827.266 2.595a.723.723 0 00.27.36c.156.115 3.897 2.739 10.156 2.739 6.258 0 9.999-2.63 10.155-2.738a.755.755 0 00.27-.361c.26-.762.255-2.292.25-2.59z" fill="#fff"/></svg>
